X: 4037
T: MY WEE FIDDLE
R: Reel.
%R: reel
B: James Kerr "Merry Melodies" v.4 p.07 #37
Z: 2016 John Chambers <jc:trillian.mit.edu>
M: C|
L: 1/8
K: D
ug !segno!|\
(fe)dc d2AG | FGEF Dddg |\
(fe)dc d2AF | GAFG Eee :|\
g2 |:\
(fa)aa (af)de | (fa)aa (af)df |\
(eg)gg (ge)cd | efge cbag !segno!:|

%%sep 1 1 500
%%sep 1 1 500

